X:2
T:Better Luck Next Time
C:Irving Berlin
L:1/4
M:C
I:linebreak $
K:B
"B" z F"G#m" B c ||"C#m" (3d e G c B |"F#7" A F"Eo" d c |"D#m" F2"C#m" z2 |$"B" z F"G#m" B c |
"C#m" (3d e G c B ||1"F#7" A F"Eo" d c |"D#m" f2"C#m" z2 :|2$"F#7" A F d d |"B" B2"C" z2 ||
"B" z2"E" d d |"A#m" d2 c A |$"D#7" =G d d d |"D#m" ^e4 |"G#7" z2 d e |"D#m" f c/A/"G#7" F F |$
"G#m" d B/G/"C#7" ^E ^E |"C#m" G4 ||"F#7" z F B c |"C#m" (3d e G c B |$"F#7" A F"Eo" d c |
"D#m" g2 g2 |"D7" z f e d |"C#m" f/f/ e"D#m" d e |"E" d B"F#7" z c |"B" B4 |]

